launcher/android/assets/skins/day/svg/map-state-overdraw.svg

<svg enable-background="new 0 0 78.13 78.25" height="78.25" viewBox="0 0 78.13 78.25" width="78.125" xmlns="http://www.w3.org/2000/svg" xmlns:xlink="http://www.w3.org/1999/xlink"><linearGradient id="a" gradientTransform="matrix(0 1 -1 0 -1.847377 -2.847377)" gradientUnits="objectBoundingBox" x1=".5" x2="6.19475" y1="-2.34738" y2="-2.34738"><stop offset=".427907" stop-color="#eeeaea"/><stop offset=".576744" stop-color="#fff" stop-opacity="0"/></linearGradient><path d="m11.5.499988h55.125c6.0751 0 11 4.924862 11 11.000012v55.25c0 6.0751-4.9249 11-11 11h-55.125c-6.07513 0-11-4.9249-11-11v-55.25c0-6.07515 4.92487-11.000012 11-11.000012z" fill="#c35e49" stroke="#000" stroke-linejoin="round"/><path d="m65.9047.85419h-53.862c-5.48905 0-10.017 4.21122-10.6677 9.64901 1.28571 2.512 3.85748 4.226 6.82043 4.226h61.92287c2.7386 0 5.1431-1.4643 6.5067-3.6696-.3979-5.70421-5.0455-10.20541-10.7203-10.20541z" fill="url(#a)" stroke-linejoin="round" stroke-width=".2"/></svg>

﻿<?xml version="1.0" encoding="utf-8"?>
<!DOCTYPE svg PUBLIC "-//W3C//DTD SVG 1.1//EN" "http://www.w3.org/Graphics/SVG/1.1/DTD/svg11.dtd">
<svg xmlns="http://www.w3.org/2000/svg" xmlns:xlink="http://www.w3.org/1999/xlink" version="1.1" baseProfile="full" width="78.125" height="78.25" viewBox="0 0 78.13 78.25" enable-background="new 0 0 78.13 78.25" xml:space="preserve">
	<path fill="#C35E49" fill-opacity="1" stroke-linejoin="round" stroke="#000000" stroke-opacity="1" d="M 11.5,0.499988L 66.625,0.499988C 72.7001,0.499988 77.625,5.42485 77.625,11.5L 77.625,66.75C 77.625,72.8251 72.7001,77.75 66.625,77.75L 11.5,77.75C 5.42487,77.75 0.5,72.8251 0.5,66.75L 0.5,11.5C 0.5,5.42485 5.42487,0.499988 11.5,0.499988 Z "/>
	<linearGradient id="SVGID_Fill1_" gradientUnits="objectBoundingBox" x1="0.5" y1="-2.34738" x2="6.19475" y2="-2.34738" gradientTransform="rotate(90.000000 0.500000 -2.347377)">
		<stop offset="0.427907" stop-color="#EEEAEA" stop-opacity="1"/>
		<stop offset="0.576744" stop-color="#FFFFFF" stop-opacity="0"/>
	</linearGradient>
	<path fill="url(#SVGID_Fill1_)" stroke-width="0.2" stroke-linejoin="round" d="M 65.9047,0.85419L 12.0427,0.85419C 6.55365,0.85419 2.0257,5.06541 1.375,10.5032C 2.66071,13.0152 5.23248,14.7292 8.19543,14.7292L 70.1183,14.7292C 72.8569,14.7292 75.2614,13.2649 76.625,11.0596C 76.2271,5.35539 71.5795,0.85419 65.9047,0.85419 Z "/>
</svg>
